X:1
T:Title
%%score { ( 1 3 ) | ( 2 4 ) }
L:1/8
M:4/4
K:Bb
V:1 treble nm="Grand Piano"
V:3 treble 
V:2 bass 
V:4 bass 
V:1
 z4 z2[Q:1/4=108] [DF]2 | [Fd]2 [Fd]2 c2 A2 | B2 G2 [DF]2 [DF]2 | [EF]>[EF] [EF]>[EF] [EA]2 [EF]2 | %4
[M:3/4] [DB]6 |[M:1/4] [DF]2 |[M:4/4] [Fd]2 [Fd]2 c2 A2 | B2 G2 [DF]2 [DF]2 | %8
 [EF]>[EF] [EF]>[EF] [EA]2 [EF]2 |[M:3/4] [DB]6 |[M:1/4] [Fd]2 |[M:4/4] c2 d2 e2 [FA]2 | %12
 [FB]2 c2 d2 [Fd]2 | [Fc]>[Fd] [Fc]>[=EB] [FA]2 [EG]2 |[M:3/4] F6 |[M:1/4] F2 | %16
[M:4/4] [Fd]2 [Fd]2 c2 A2 | B2 G2 [DF]2 [DF]2 | [EF]>[EF] [EF]>[EF] [EA]2 [EF]2 |[M:3/4] [DB]6 | %20
[M:1/4] [Fd]2 |[M:4/4] [^Fd]<[Fd] [Fd]>[Fd] [Fd]2 [Fc]2 | B6 z2 | %23
 [=Ec]<[Ec] [Ec]>[Ec] [Ec]2 [EG]2 |[M:3/4] A6 |[M:1/4] F2 | %26
[M:4/4] [DF]<[DF] [DF]>[DF] [EG]2 [B,D]2 | z2 F4 z2 | [A,EF]<[A,EF] [A,EF]>[A,EF] [CEA]2 [A,EF]2 | %29
[M:3/4] B6 |] %30
V:2
 z4 z2 [B,,B,]2 | [B,,B,]2 [B,,B,]2 [F,A,F]2 [^F,CE]2 | [G,B,D]2 [E,B,E]2 [B,,B,]2 [B,,B,]2 | %3
 [C,A,]>[C,A,] [C,A,]>[C,A,] [F,C]2 [F,A,]2 |[M:3/4] [B,,B,]6 |[M:1/4] [B,,B,]2 | %6
[M:4/4] [B,,B,]2 [B,,B,]2 [F,A,F]2 [^F,CE]2 | [G,B,D]2 [E,B,E]2 [B,,B,]2 [B,,B,]2 | %8
 [C,A,]>[C,A,] [C,A,]>[C,A,] [F,C]2 [F,A,]2 |[M:3/4] [B,,B,]6 |[M:1/4] [B,,B,]2 | %11
[M:4/4] [F,A,F]2 [F,B,F]2 [F,CF]2 [E,C]2 | [D,B,]2[K:treble] [F,A,F]2 [B,F]2[K:bass] [B,,B,]2 | %13
 [C,A,]>[C,B,] [C,A,]>[C,G,] [C,C]2 [C,B,]2 |[M:3/4] F,2- [F,-B,]2 [F,C]2 |[M:1/4] [F,A,]2 | %16
[M:4/4] [B,,B,]2 [B,,B,]2 [F,A,F]2 [^F,CE]2 | [G,B,D]2 [E,B,E]2 [B,,B,]2 [B,,B,]2 | %18
 [C,A,]>[C,A,] [C,A,]>[C,A,] [F,C]2 [F,A,]2 |[M:3/4] [B,,B,]6 |[M:1/4] [B,,B,]2 | %21
[M:4/4] [D,A,]<[D,A,] [D,A,]>[D,A,] [D,A,]2 [D,A,]2 | [G,B,G]2 [B,D]2[K:bass] [G,B,]2 [G,B,D]2 | %23
 [C,B,]<[C,G,] [C,G,]>[C,G,] [C,G,]2 [C,C]2 |[M:3/4] [F,CF]2 [A,C]2 [F,C]2 |[M:1/4] [F,A,E]2 | %26
[M:4/4] [B,,B,]<[B,,B,] [B,,B,]>[B,,B,] [B,,B,]2 [B,,F,]2 | [B,,B,]2 [D,B,]2 [B,,B,]2 [B,,B,]2 | %28
 C,<C, C,>C, F,2 F,2 |[M:3/4] z2 G,2 F,2 |] %30
V:3
 x8 | x8 | x8 | x8 |[M:3/4] x6 |[M:1/4] x2 |[M:4/4] x8 | x8 | x8 |[M:3/4] x6 |[M:1/4] x2 | %11
[M:4/4] x8 | x8 | x8 |[M:3/4] z2 D2 E2 |[M:1/4] x2 |[M:4/4] x8 | x8 | x8 |[M:3/4] x6 |[M:1/4] x2 | %21
[M:4/4] x8 | z2 G2 D2 B2 | x8 |[M:3/4] z2 F2 F2 |[M:1/4] x2 |[M:4/4] x8 | [DF]2 z2 D2 [DF]2 | x8 | %29
[M:3/4] [B,D]2 E2 D2 |] %30
V:4
 x8 | x8 | x8 | x8 |[M:3/4] x6 |[M:1/4] x2 |[M:4/4] x8 | x8 | x8 |[M:3/4] x6 |[M:1/4] x2 | %11
[M:4/4] x8 | x2[K:treble] x4[K:bass] x2 | x8 |[M:3/4] A,2 z2 z2 |[M:1/4] x2 |[M:4/4] x8 | x8 | x8 | %19
[M:3/4] x6 |[M:1/4] x2 |[M:4/4] x8 | x4[K:bass] x4 | x8 |[M:3/4] x6 |[M:1/4] x2 |[M:4/4] x8 | x8 | %28
 x8 |[M:3/4] B,,6 |] %30

